public/images/Footer/email.svg

<svg width="19" height="14" viewBox="0 0 19 14" fill="none" xmlns="http://www.w3.org/2000/svg">
<path d="M18.0762 12.5244V0.952637L11.844 6.73853L18.0762 12.5244Z" fill="#FF6B00"/>
<path d="M9.03863 9.34276L7.25929 7.69092L1.02698 13.4766H17.0503L10.818 7.69092L9.03863 9.34276Z" fill="#FF6B00"/>
<path d="M17.0503 0H1.02698L9.03863 7.4375L17.0503 0Z" fill="#FF6B00"/>
<path d="M0.000976562 0.952637V12.5244L6.23325 6.73853L0.000976562 0.952637Z" fill="#FF6B00"/>
</svg>

<svg xmlns="http://www.w3.org/2000/svg" width="19" height="14" fill="#ff6b00" xmlns:v="https://vecta.io/nano"><path d="M18.076 12.524V.953l-6.232 5.786 6.232 5.786zM9.039 9.343l-1.78-1.652-6.232 5.786H17.05l-6.232-5.786-1.779 1.652z"/><path d="M17.05 0H1.027l8.012 7.438L17.05 0zM.001.953v11.572l6.232-5.786L.001.953z"/></svg>
